icon-themes/breeze_svg/cmd/lc_heading1parastyle.svg

<svg viewBox="0 0 24 24" xmlns="http://www.w3.org/2000/svg"><path d="m3 4v16h2v-7h7v7h2v-16h-2v7h-7v-7z" fill="#4d4d4d"/><path d="m18.597656 12-2.597656 2.052734.822266 1.017578.925781-.740234c.110344-.087551.308578-.269887.591797-.550781l-.027344.830078-.017578.761719v4.628906h1.705078v-8z" fill="#1d99f3"/></svg>

<svg xmlns="http://www.w3.org/2000/svg" viewBox="0 0 24 24">
 <path 
     style="fill:#4d4d4d" 
     d="M 3 4 L 3 20 L 5 20 L 5 13 L 12 13 L 12 20 L 14 20 L 14 4 L 12 4 L 12 11 L 5 11 L 5 4 L 3 4 z "
     />
 <path 
     style="fill:#1d99f3" 
     d="M 18.597656 12 L 16 14.052734 L 16.822266 15.070312 L 17.748047 14.330078 C 17.858391 14.242527 18.056625 14.060191 18.339844 13.779297 L 18.3125 14.609375 L 18.294922 15.371094 L 18.294922 20 L 20 20 L 20 12 L 18.597656 12 z "
     />
 </svg>
